X: 1
T:Come Again, You're Welcome
R:Reel
O:Shetland
M:4/4
K:G
BA |\
GE DB, [D3G,3]d | BG cB AG E2 | \
G2-GE D2-Dd | BG AB G2 :|
|:GB |\
de gd ed B2 | g2 dg e2-ee | \
de gd ed BA | GE DE G2 :|
